X: 22039
T: Knight Templars
R: hornpipe
M: 4/4
K: Gmajor
D|GABG EDCB,|EGAB A3 B|GABc dcBA|GABc d3 B|
cdec BcdB|AGcB A2 (3Bcd|DEGD EDCB,|DEGA G3||
|:B|cdec BdcB|AGcB A2 (3ABc|DEGD EDCB,|DEGA G3:|

